src/components/AppIcon/assets/app-console.svg

<svg width="24" height="24" viewBox="0 0 24 24" fill="none" xmlns="http://www.w3.org/2000/svg">
<rect width="24" height="24" rx="4" fill="#C8D7EA"/>
<path d="M4.88414 4.8187L4.88412 4.81871C4.50529 5.14225 4.50529 5.69688 4.88412 6.02042L8.37287 9L4.88412 11.9796L4.88412 11.9796C4.50529 12.3031 4.50529 12.8577 4.88412 13.1813C5.22559 13.4729 5.75697 13.4729 6.09845 13.1813L10.2907 9.60088C10.2907 9.60087 10.2907 9.60086 10.2907 9.60085C10.4705 9.44728 10.5748 9.23091 10.5748 9C10.5748 8.76912 10.4706 8.55272 10.2907 8.39914C10.2907 8.39913 10.2907 8.39912 10.2907 8.39911L6.09845 4.81871L6.09843 4.8187C5.75696 4.5271 5.22561 4.5271 4.88414 4.8187Z" fill="white" stroke="#FFFEFE" stroke-width="0.8"/>
<path d="M18.6852 13.7058H11.5244C11.2721 13.7058 11.0838 13.8517 10.9748 14.0065C10.865 14.1625 10.8097 14.357 10.8097 14.5529C10.8097 14.7488 10.865 14.9433 10.9748 15.0993C11.0838 15.2542 11.2722 15.4 11.5244 15.4H18.6852C18.9375 15.4 19.1258 15.2542 19.2348 15.0993C19.3447 14.9433 19.3999 14.7488 19.3999 14.5529C19.3999 14.357 19.3447 14.1625 19.2349 14.0065C19.1258 13.8516 18.9375 13.7058 18.6852 13.7058Z" fill="white" stroke="white" stroke-width="0.8"/>
</svg>

<svg width="24" height="24" fill="none" xmlns="http://www.w3.org/2000/svg"><path opacity=".5" fill="#798EBB" d="M0 0h24v24H0z"/><path d="M4.884 4.819h0a.777.777 0 0 0 0 1.201L8.373 9l-3.489 2.98a.777.777 0 0 0 0 1.201.952.952 0 0 0 1.214 0l4.193-3.58s0 0 0 0A.79.79 0 0 0 10.575 9a.79.79 0 0 0-.284-.6s0 0 0 0L6.098 4.818h0a.952.952 0 0 0-1.214 0zM18.685 13.706h-7.16a.676.676 0 0 0-.55.3.953.953 0 0 0-.165.547c0 .196.055.39.165.546.109.155.297.301.55.301h7.16c.253 0 .44-.146.55-.3a.952.952 0 0 0 .165-.547.953.953 0 0 0-.165-.546.676.676 0 0 0-.55-.301z" fill="#fff" stroke="#fff" stroke-width=".8"/></svg>
